X: 1
T: 5:30am
M: 4/4
L: 1/8
R: reel
K: Edor
e~B3 eBgB|eBBc dB(AB/2c/2)|dAFA DAFA|dAgA fAeA|
e~B3 eBgB|eBBc dB(AB/2c/2)|dAFA DAFA|1 gfed e2zz:|2 GFED e2zz||
d~B3 e2fe|dBBc dB(AB/2c/2)| dAFA DAFA|dAgA fAeA|
e~B3 eBgB|eBBc dB(AB/2c/2)|dAFA DAFA|GFED e2zz:|
e~B3 eBgB|ebba gagf|e~A3 ~f3d|~a3g fged|
e~B3 eBgB|ebba gagf|~A3d ~f3a|gfed e2zf:|
g~B3 gBaB|g~B3 bagb|a~f3 d~f3|a~f3 =c'ba=c'|
b~g3 d~g3|a~g3 bagb|=c'ffg a=c'ba|gfef g2zz:|
